X: 26216
T: Meatballs, Whisky And Beer
R: hornpipe
M: 4/4
K: Ddorian
|:Dddd- dAcd|e2 c2 d4|cBAc BAGB|ABAG FEDC|
Dddd- dAcd|e2 c2 d4|cBAc BAGB|1 A2 z2 z4:|2 A2 z2 z G FE||
|:EDDC D2 DC|CB,B,G, A,2 A,B,|C2 C2 B,CB,G,|A,B,A,G, A,GFE|
EDDC D2 DC|CB,B,G, A,2 A,B,|C2 C2 B,CB,G,|1 A,2 z2 z G FE:|2 A,2 z2 z4||

